app/assets/images/heroicons/micro/signal.svg

<svg width="16" height="16" viewBox="0 0 16 16" fill="none" xmlns="http://www.w3.org/2000/svg">
<path d="M9 7.99998C9 8.55227 8.55228 8.99998 8 8.99998C7.44772 8.99998 7 8.55227 7 7.99998C7 7.4477 7.44772 6.99998 8 6.99998C8.55228 6.99998 9 7.4477 9 7.99998Z" fill="black"/>
<path fill-rule="evenodd" clip-rule="evenodd" d="M9.67938 5.25995C9.97227 4.96705 10.4471 4.96705 10.74 5.25995C12.2533 6.77323 12.2533 9.22674 10.74 10.74C10.4471 11.0329 9.97227 11.0329 9.67938 10.74C9.38649 10.4471 9.38649 9.97226 9.67938 9.67936C10.6069 8.75187 10.6069 7.2481 9.67938 6.32061C9.38649 6.02771 9.38649 5.55284 9.67938 5.25995ZM6.32062 5.25995C6.61351 5.55284 6.61351 6.02771 6.32062 6.32061C5.39313 7.2481 5.39313 8.75187 6.32062 9.67936C6.61351 9.97226 6.61351 10.4471 6.32062 10.74C6.02773 11.0329 5.55285 11.0329 5.25996 10.74C3.74668 9.22674 3.74668 6.77323 5.25996 5.25995C5.55285 4.96705 6.02773 4.96705 6.32062 5.25995Z" fill="black"/>
<path fill-rule="evenodd" clip-rule="evenodd" d="M11.8891 3.05024C12.182 2.75734 12.6569 2.75734 12.9497 3.05024C15.6834 5.78391 15.6834 10.2161 12.9497 12.9497C12.6569 13.2426 12.182 13.2426 11.8891 12.9497C11.5962 12.6568 11.5962 12.182 11.8891 11.8891C14.037 9.74119 14.037 6.25878 11.8891 4.1109C11.5962 3.818 11.5962 3.34313 11.8891 3.05024ZM4.11091 3.05024C4.40381 3.34313 4.40381 3.818 4.11091 4.1109C1.96303 6.25878 1.96303 9.74119 4.11091 11.8891C4.40381 12.182 4.40381 12.6568 4.11091 12.9497C3.81802 13.2426 3.34315 13.2426 3.05025 12.9497C0.316583 10.2161 0.316582 5.78391 3.05025 3.05024C3.34315 2.75734 3.81802 2.75734 4.11091 3.05024Z" fill="black"/>
</svg>

<svg xmlns="http://www.w3.org/2000/svg" viewBox="0 0 16 16" fill="currentColor" aria-hidden="true" data-slot="icon">
  <path d="M9 8a1 1 0 1 1-2 0 1 1 0 0 1 2 0Z"/>
  <path fill-rule="evenodd" d="M9.68 5.26a.75.75 0 0 1 1.06 0 3.875 3.875 0 0 1 0 5.48.75.75 0 1 1-1.06-1.06 2.375 2.375 0 0 0 0-3.36.75.75 0 0 1 0-1.06Zm-3.36 0a.75.75 0 0 1 0 1.06 2.375 2.375 0 0 0 0 3.36.75.75 0 1 1-1.06 1.06 3.875 3.875 0 0 1 0-5.48.75.75 0 0 1 1.06 0Z" clip-rule="evenodd"/>
  <path fill-rule="evenodd" d="M11.89 3.05a.75.75 0 0 1 1.06 0 7 7 0 0 1 0 9.9.75.75 0 1 1-1.06-1.06 5.5 5.5 0 0 0 0-7.78.75.75 0 0 1 0-1.06Zm-7.78 0a.75.75 0 0 1 0 1.06 5.5 5.5 0 0 0 0 7.78.75.75 0 1 1-1.06 1.06 7 7 0 0 1 0-9.9.75.75 0 0 1 1.06 0Z" clip-rule="evenodd"/>
</svg>
